X: 9260
T: Dan Sullivan's Shamrock Swing Band
R: polka
M: 2/4
K: Adorian
|:A>B c/B/c/d/|ed ea|ge de/d/|cA GE|
A>B c/B/c/d/|ed ea|ge de/d/|1 cA AE:|2 cA Af/g/||
|:a2 ge|dB g f/g/|aA AB/^c/|dB GE|
A>B c/B/c/d/|ed ea|ge de/d/|1 cA Af/g/:|2 cA AE||

